X:1
T:Title
%%score 1 { 2 | 3 }
L:1/8
M:6/8
K:E
V:1 treble nm="Akkordion"
V:2 treble nm="Grand Piano"
V:3 bass 
V:1
 z3 z2[Q:1/4=100] E/F/ | G2 G GFG | A2 A A2 G/A/ | B2 B G2 G | G3- G2 E/F/ | G2 G GFG | A2 A A2 A | %7
 G2 G B2 E | F3- F2 F/G/ | A2 A AGA | B2 B B2 B | ccc d2 c | B3- B2 e/c/ | B2 B BGE | %14
 A2 B c2 d/e/ | B2 G G2 F |[M:5/8] E-E- E3 |[M:3/4] z6 | z6 | z6 | z6 | z6 | z6 | z6 | z6 |] %25
V:2
 z3 z2 [G,B,E] | [B,EG]2 [B,EG] [B,EG]2 [B,EG] | [B,DA]2 [B,DA] [B,DA]2 [B,DF] | %3
 [B,EB]2 [B,EB] [B,EG]2 [CEG] | [^B,DG]6 | [B,EG]2 [B,EG] [B,EG]2 [B,EG] | %6
 [B,DA]2 [B,DA] [B,DA]2 [B,DA] | [B,EG]2 [B,EG] [B,EG]2 [EF^A] | [DFB]3- [DFB]2 [B,DA] | %9
 [B,DA]2 [B,DA] [B,DA]2 [B,DF] | [B,EB]2 [B,EB] [B,EG]2 [B,EG] | [CEA]2 [CEA] [CE^A]2 [CEA] | %12
 [DFB]2 [B,DFB] [B,EB]2- [B,EB]/[EAc]/ | [EGB]2 [DFB] [B,EB]2 [=DEB] | [CEA]2 [DFB] [EAc]2 [E=Gc] | %15
 [EGB]2 [EG] [B,EG]2 [A,B,DF] |[M:5/8] [G,B,E]-[G,B,E]- [G,B,E]3 |[M:3/4] [GB]3 [GB] [EG][B,E] | %18
 [DF]2 [DF] .[DF]3 | [DF][EG] [FA] [DAc]2 [DAB] | [EGB]6 | [Ge][Ge] [Ge] [Ad]2 [Ac] | %22
 [GB]2 [EG] [Ec]3 | [Ec][Ed] [Ec] [EB]2 D | E6 |] %25
V:3
 z3 z2 [E,,E,] | [E,,E,]2 [E,,E,] [E,,E,]2 [E,,E,] | [F,,F,]2 [F,,F,] [F,,F,]2 [A,,A,] | %3
 [G,,G,]2 [G,,G,] [E,,E,]2 [C,,C,] | [G,,G,]6 | [E,,E,]2 [E,,E,] [E,,E,]2 [E,,E,] | %6
 [F,,F,]2 [F,,F,] [F,,F,]2 [B,,,B,,] | [E,,E,]2 [E,,E,] [E,,E,]2 [C,,C,] | %8
 [B,,,B,,]3- [B,,,B,,]2 [B,,,B,,] | [F,,F,]2 [F,,F,] [F,,F,]2 [A,,A,] | %10
 [G,,G,]2 [G,,G,] [E,,E,]2 [E,,E,] | [A,,A,]2 [A,,A,] [F,,F,]2 [F,,F,] | %12
 [B,,B,]2 [A,,A,] [G,,G,]2- [G,,G,]/[A,,A,]/ | [B,,B,]2 [A,,A,] [G,,G,]2 [G,,G,] | %14
 [A,,A,]2 [A,,A,] [A,,A,]2 [A,,^A,] | [B,,B,]2 [B,,B,] [B,,,B,,]2 [B,,,B,,] | %16
[M:5/8] [E,,E,]-[E,,E,]- [E,,E,]3 |[M:3/4] [E,E]3 [E,E] [E,B,][E,G,] | [B,,B,]2 [B,,B,] .[B,,B,]3 | %19
 [B,,B,][B,,B,] [B,,B,] B,,2 B,, | E,6 | [E,B,][E,B,] [E,B,] [F,B,]2 [F,D] | %22
 [G,E]2 [E,B,] [A,,A,]3 | [A,,A,][A,,A,] [A,,A,] [B,,G,]2 [B,,A,B,] | [E,G,B,]6 |] %25

